Ricoh_GR2_Posi_Final_33_Rec709.cube
TITLE "Ricoh_GR2_Posi_Final_33_Rec709"
LUT_3D_SIZE 5
DOMAIN_MIN 0.000000 0.000000 0.000000
DOMAIN_MAX 1.000000 1.000000 1.000000
0.000000 0.000000 0.000000
0.223976 0.000000 0.000000
0.441593 0.000000 0.000000
0.675697 0.000000 0.000000
0.871235 0.000000 0.023265
0.000000 0.202085 0.005500
0.200089 0.189178 0.002198
0.436369 0.162216 0.000000
0.674188 0.124037 0.009340
0.873470 0.066922 0.045477
0.000000 0.421194 0.030648
0.169586 0.417624 0.033687
0.429685 0.411292 0.047595
0.678869 0.404722 0.078513
0.896219 0.390668 0.101504
0.000000 0.663751 0.132125
0.146777 0.662877 0.135182
0.430911 0.665565 0.143301
0.695835 0.669001 0.157757
0.931567 0.669178 0.184489
0.017739 0.929527 0.226651
0.081360 0.930294 0.229246
0.435265 0.939869 0.249991
0.713621 0.954888 0.238125
0.979544 0.961778 0.264807
0.000000 0.006977 0.199864
0.214156 0.000000 0.193653
0.438594 0.000000 0.183720
0.674326 0.000000 0.188001
0.872619 0.000000 0.211191
0.000000 0.204778 0.195277
0.193105 0.193105 0.193105
0.433659 0.167690 0.191792
0.673049 0.132659 0.201625
0.875190 0.078555 0.223123
0.000000 0.424149 0.211239
0.163608 0.420687 0.213334
0.427685 0.414835 0.221721
0.678491 0.408649 0.239089
0.898229 0.394773 0.255152
0.000000 0.667060 0.267614
0.139839 0.666095 0.269693
0.428943 0.668789 0.277075
0.695334 0.672184 0.289930
0.933084 0.672676 0.312182
0.021572 0.930820 0.339295
0.072979 0.931399 0.341155
0.432889 0.941269 0.356302
0.712463 0.957963 0.351506
0.980993 0.964659 0.378642
0.000000 0.022687 0.407834
0.194471 0.001238 0.400357
0.432005 0.000000 0.397389
0.671245 0.000000 0.403422
0.875974 0.000000 0.420188
0.000000 0.212565 0.401533
0.176902 0.202769 0.401446
0.427595 0.180580 0.403264
0.670675 0.151743 0.411735
0.879714 0.103449 0.428007
0.000000 0.431182 0.415041
0.149636 0.427941 0.416621
0.423119 0.423119 0.423119
0.677678 0.417663 0.437109
0.902962 0.404339 0.453894
0.000000 0.674912 0.455672
0.122260 0.673595 0.457370
0.424232 0.676205 0.465637
0.694130 0.679580 0.479467
0.936613 0.680832 0.500812
0.033306 0.933713 0.517115
0.055487 0.933972 0.518084
0.426490 0.944683 0.528777
0.709892 0.964987 0.533433
0.984479 0.971438 0.561390
0.000000 0.048342 0.608115
0.164817 0.029301 0.607779
0.421353 0.000000 0.610119
0.666504 0.000000 0.617625
0.882370 0.000000 0.635994
0.000000 0.227833 0.611309
0.148550 0.219826 0.612259
0.417836 0.202673 0.615719
0.667411 0.181087 0.625292
0.887845 0.137154 0.643776
0.000000 0.443729 0.625151
0.125460 0.440743 0.626604
0.415855 0.437363 0.633716
0.676411 0.432458 0.649653
0.910645 0.420192 0.669799
0.000000 0.688035 0.664896
0.086923 0.686099 0.666115
0.415999 0.688593 0.675899
0.691878 0.691878 0.691878
0.943613 0.694007 0.712889
0.052039 0.938770 0.722928
0.052076 0.938784 0.723395
0.412235 0.950883 0.732987
0.705250 0.970548 0.747071
0.990719 0.983067 0.773117
0.000000 0.090609 0.819473
0.119277 0.074437 0.820410
0.406842 0.040344 0.824232
0.660899 0.000000 0.833977
0.892199 0.000000 0.858761
0.000000 0.252366 0.824700
0.104600 0.245997 0.825566
0.405055 0.234596 0.830217
0.664171 0.217852 0.843997
0.899438 0.178257 0.868450
0.000000 0.463288 0.840414
0.085426 0.460098 0.841577
0.405244 0.457983 0.851793
0.674118 0.453339 0.871817
0.921402 0.442603 0.896107
0.001701 0.706631 0.886463
0.026559 0.703831 0.886693
0.403268 0.706254 0.898075
0.688531 0.709594 0.915454
0.955762 0.710780 0.940482
0.046456 0.947995 0.943573
0.046409 0.948014 0.943938
0.387349 0.959691 0.956344
0.699667 0.976719 0.974720
0.999795 0.999795 0.999795
