Ricoh_GR2_Posi_Final_33_Rec709.cube
TITLE "Ricoh_GR2_Posi_Final_33_Rec709"
LUT_3D_SIZE 33
DOMAIN_MIN 0.000000 0.000000 0.000000
DOMAIN_MAX 1.000000 1.000000 1.000000
0.000000 0.000000 0.000000
0.029105 0.000000 0.000000
0.055160 0.000000 0.000000
0.078995 0.000000 0.000000
0.108721 0.000000 0.000000
0.138280 0.000000 0.000000
0.168181 0.000000 0.000000
0.197762 0.000000 0.000000
0.223976 0.000000 0.000000
0.249962 0.000000 0.000000
0.276296 0.000000 0.000000
0.303018 0.000000 0.000000
0.330040 0.000000 0.000000
0.357470 0.000000 0.000000
0.385183 0.000000 0.000000
0.413214 0.000000 0.000000
0.441593 0.000000 0.000000
0.470199 0.000000 0.000000
0.499105 0.000000 0.000000
0.528206 0.000000 0.000000
0.557441 0.000000 0.000000
0.586903 0.000000 0.000000
0.616372 0.000000 0.000000
0.645982 0.000000 0.000000
0.675697 0.000000 0.000000
0.705509 0.000000 0.000000
0.735625 0.000000 0.000000
0.765961 0.000000 0.000000
0.796634 0.000000 0.005001
0.827752 0.000000 0.011212
0.859315 0.000000 0.017553
0.871225 0.000000 0.021238
0.871235 0.000000 0.023265
0.000000 0.024905 0.000507
0.023742 0.021852 0.000114
0.049841 0.019494 0.000000
0.076812 0.017486 0.000000
0.106918 0.015076 0.000000
0.136953 0.012204 0.000000
0.167349 0.008849 0.000000
0.195789 0.004871 0.000000
0.222111 0.000457 0.000000
0.248749 0.000000 0.000000
0.275518 0.000000 0.000000
0.302425 0.000000 0.000000
0.329490 0.000000 0.000000
0.356959 0.000000 0.000000
0.384705 0.000000 0.000000
0.412765 0.000000 0.000000
0.441171 0.000000 0.000000
0.469798 0.000000 0.000000
0.498727 0.000000 0.000000
0.527846 0.000000 0.000000
0.557100 0.000000 0.000000
0.586577 0.000000 0.000000
0.616061 0.000000 0.000000
0.645687 0.000000 0.000000
0.675413 0.000000 0.000000
0.705237 0.000000 0.000000
0.735363 0.000000 0.000000
0.765708 0.000000 0.000948
0.796389 0.000000 0.006706
0.827514 0.000000 0.012923
0.859083 0.000000 0.019273
0.871234 0.000000 0.022995
0.871244 0.000000 0.025023
0.000000 0.047184 0.000960
0.020516 0.045372 0.000641
0.047207 0.043450 0.000231
0.074307 0.041497 0.000000
0.105025 0.039204 0.000000
0.135555 0.036445 0.000000
0.164442 0.032733 0.000000
0.191562 0.028289 0.000000
0.218775 0.023634 0.000000
0.245983 0.018689 0.000000
0.273264 0.013423 0.000000
0.300676 0.007795 0.000000
0.328281 0.001777 0.000000
0.356055 0.000000 0.000000
0.384072 0.000000 0.000000
0.412281 0.000000 0.000000
0.440747 0.000000 0.000000
0.469397 0.000000 0.000000
0.498349 0.000000 0.000000
0.527485 0.000000 0.000000
0.556759 0.000000 0.000000
0.586251 0.000000 0.000000
0.615751 0.000000 0.000000
0.645391 0.000000 0.000000
0.675129 0.000000 0.000000
0.704964 0.000000 0.000000
0.735101 0.000000 0.000000
0.765454 0.000000 0.002648
0.796144 0.000000 0.008410
0.827276 0.000000 0.014633
0.858850 0.000000 0.020992
0.871243 0.000000 0.024753
0.871253 0.000000 0.026782
0.000000 0.071526 0.001459
0.017613 0.069772 0.001190
0.044506 0.067969 0.000784
0.072024 0.066294 0.000375
0.102691 0.063645 0.000000
0.132211 0.060160 0.000000
0.160207 0.055785 0.000000
0.188141 0.051307 0.000000
0.215896 0.046561 0.000000
0.243548 0.041523 0.000000
0.271250 0.036178 0.000000
0.298992 0.030481 0.000000
0.326907 0.024421 0.000000
0.354914 0.018002 0.000000
0.383150 0.011181 0.000000
0.411571 0.003931 0.000000
0.440168 0.000000 0.000000
0.468984 0.000000 0.000000
0.497963 0.000000 0.000000
0.527128 0.000000 0.000000
0.556416 0.000000 0.000000
0.585923 0.000000 0.000000
0.615437 0.000000 0.000000
0.645092 0.000000 0.000000
0.674843 0.000000 0.000000
0.704688 0.000000 0.000000
0.734837 0.000000 0.000000
0.765198 0.000000 0.004363
0.795897 0.000000 0.010129
0.827036 0.000000 0.016358
0.858616 0.000000 0.022726
0.871252 0.000000 0.026527
0.871262 0.000000 0.028555
0.000000 0.099896 0.002074
0.014178 0.098581 0.001865
0.041058 0.096429 0.001451
0.067799 0.093977 0.001034
0.097745 0.090543 0.000545
0.127248 0.086838 0.000000
0.156179 0.082778 0.000000
0.184676 0.078069 0.000000
0.212911 0.073308 0.000000
0.241048 0.068264 0.000000
0.269093 0.062882 0.000000
0.297241 0.057188 0.000000
0.325376 0.051138 0.000000
0.353710 0.044746 0.000000
0.382121 0.037947 0.000000
0.410762 0.030809 0.000000
0.439485 0.023302 0.000000
0.468498 0.015417 0.000000
0.497530 0.007343 0.000000
0.526833 0.000000 0.000000
0.556135 0.000000 0.000000
0.585637 0.000000 0.000000
0.615122 0.000000 0.000000
0.644739 0.000000 0.000000
0.674504 0.000000 0.000000
0.704363 0.000000 0.000000
0.734524 0.000000 0.001268
0.764895 0.000000 0.006391
0.795605 0.000000 0.012161
0.826751 0.000000 0.018398
0.858338 0.000000 0.024777
0.871262 0.000000 0.028623
0.871272 0.000000 0.030652
0.000000 0.127048 0.002782
0.009738 0.125145 0.002619
0.035905 0.122380 0.002193
0.061935 0.120012 0.001782
0.092225 0.117397 0.001308
0.122516 0.114411 0.000761
0.152034 0.111061 0.000149
0.181101 0.107400 0.000000
0.209849 0.103378 0.000000
0.238385 0.098956 0.000000
0.266889 0.094146 0.000000
0.295306 0.088848 0.000000
0.323818 0.083056 0.000000
0.352370 0.076466 0.000000
0.381070 0.069776 0.000000
0.409848 0.062751 0.000000
0.438823 0.055362 0.000000
0.467880 0.047704 0.000000
0.497114 0.039789 0.000000
0.526426 0.031686 0.000000
0.555872 0.023531 0.000000
0.585347 0.015379 0.000000
0.614958 0.007357 0.000000
0.644550 0.000000 0.000000
0.674328 0.000000 0.000000
0.704142 0.000000 0.000000
0.734208 0.000000 0.003820
0.764536 0.000000 0.008797
0.795258 0.000000 0.014572
0.826414 0.000000 0.020817
0.858009 0.000000 0.027209
0.871275 0.000000 0.031110
0.871285 0.000000 0.033139
0.000000 0.151443 0.003527
0.004716 0.149992 0.003447
0.030449 0.148050 0.003046
0.056168 0.146156 0.002656
0.086484 0.143986 0.002204
0.117613 0.141544 0.001680
0.147829 0.138805 0.001084
0.177435 0.135752 0.000418
0.206680 0.132421 0.000000
0.235695 0.128786 0.000000
0.264517 0.124804 0.000000
0.293347 0.120516 0.000000
0.322133 0.115819 0.000000
0.350994 0.110722 0.000000
0.379895 0.105194 0.000000
0.408914 0.099165 0.000000
0.438046 0.092625 0.000000
0.467256 0.085563 0.000000
0.496629 0.077670 0.000000
0.526017 0.069929 0.000000
0.555555 0.062046 0.000000
0.585095 0.054310 0.000000
0.614737 0.046650 0.000000
0.644437 0.039226 0.000000
0.674237 0.031996 0.000000
0.704186 0.024993 0.003612
0.734267 0.018181 0.008022
0.764659 0.011344 0.012930
0.795265 0.004458 0.018337
0.826288 0.000000 0.024141
0.857646 0.000000 0.030064
0.871289 0.000000 0.034000
0.871299 0.000000 0.036028
0.000000 0.176521 0.004426
0.000000 0.175423 0.004437
0.024724 0.173869 0.004061
0.050203 0.172340 0.003687
0.080180 0.170575 0.003253
0.112508 0.168532 0.002746
0.143454 0.166251 0.002168
0.173690 0.163729 0.001521
0.203433 0.160931 0.000825
0.232872 0.157883 0.000082
0.262144 0.154588 0.000000
0.291277 0.150986 0.000000
0.320415 0.147125 0.000000
0.349520 0.142951 0.000000
0.378683 0.138450 0.000000
0.407928 0.133623 0.000000
0.437194 0.128473 0.000000
0.466623 0.122971 0.000000
0.496029 0.117193 0.000000
0.525604 0.111114 0.000000
0.555142 0.104822 0.000000
0.584832 0.098327 0.000000
0.614489 0.091722 0.000000
0.644306 0.085001 0.000940
0.674159 0.077964 0.004281
0.704240 0.071261 0.008222
0.734460 0.064669 0.012781
0.764947 0.058146 0.017913
0.795694 0.051543 0.023498
0.826813 0.044663 0.029360
0.858396 0.037135 0.035166
0.872313 0.026432 0.038402
0.871962 0.013626 0.040027
0.000000 0.202085 0.005500
0.000000 0.201240 0.005602
0.018621 0.199939 0.005242
0.043934 0.198689 0.004885
0.073790 0.197246 0.004468
0.107113 0.195564 0.003981
0.138897 0.193642 0.003445
0.169774 0.191506 0.002850
0.200089 0.189178 0.002198
0.229998 0.186609 0.001491
0.259655 0.183812 0.000734
0.289189 0.180818 0.000000
0.318600 0.177564 0.000000
0.348018 0.174087 0.000000
0.377435 0.170367 0.000000
0.406843 0.166407 0.000000
0.436369 0.162216 0.000000
0.465850 0.157811 0.000000
0.495482 0.153240 0.000000
0.525078 0.148499 0.000000
0.554790 0.143679 0.000000
0.584486 0.138781 0.000375
0.614303 0.133885 0.002728
0.644155 0.128954 0.005712
0.674188 0.124037 0.009340
0.704306 0.119095 0.013611
0.734710 0.114061 0.018392
0.765303 0.108810 0.023595
0.796280 0.103308 0.029190
0.827540 0.097252 0.034923
0.859373 0.090334 0.040533
0.873813 0.079830 0.043878
0.873470 0.066922 0.045477
0.000000 0.228091 0.006759
0.000000 0.227425 0.006958
0.012073 0.226361 0.006627
0.037303 0.225301 0.006300
0.067096 0.224081 0.005920
0.101318 0.222690 0.005479
0.134093 0.221095 0.004978
0.165711 0.219296 0.004417
0.196591 0.217301 0.003802
0.227027 0.215154 0.003170
0.257118 0.212795 0.002533
0.286983 0.210230 0.001875
0.316779 0.207513 0.001207
0.346453 0.204582 0.000650
0.376105 0.201472 0.000188
0.405791 0.198181 0.000000
0.435410 0.194721 0.000000
0.465141 0.191144 0.000000
0.494831 0.187425 0.000478
0.524599 0.183656 0.001508
0.554367 0.179821 0.003052
0.584205 0.175997 0.005199
0.614099 0.172166 0.007929
0.644095 0.168377 0.011302
0.674219 0.164596 0.015253
0.704540 0.160783 0.019694
0.735057 0.156936 0.024656
0.765840 0.152998 0.030046
0.796927 0.148836 0.035696
0.828440 0.144262 0.041350
0.860444 0.138950 0.046619
0.875613 0.131159 0.049652
0.875215 0.121331 0.051374
0.000000 0.254512 0.008313
0.000000 0.253953 0.008589
0.005071 0.253092 0.008305
0.030271 0.252220 0.008001
0.060061 0.251200 0.007647
0.095015 0.250002 0.007234
0.128949 0.248674 0.006767
0.161432 0.247168 0.006295
0.192984 0.245485 0.005785
0.223915 0.243624 0.005242
0.254490 0.241649 0.004679
0.284775 0.239492 0.004147
0.314841 0.237153 0.003715
0.344854 0.234706 0.003333
0.374775 0.232084 0.003056
0.404622 0.229332 0.003077
0.434510 0.226476 0.003278
0.464327 0.223500 0.003866
0.494211 0.220488 0.004858
0.524071 0.217411 0.006318
0.553977 0.214338 0.008332
0.583932 0.211263 0.010884
0.613941 0.208224 0.014057
0.644097 0.205196 0.017722
0.674368 0.202174 0.021921
0.704839 0.199183 0.026664
0.735497 0.196137 0.031815
0.766506 0.192963 0.037178
0.797811 0.189551 0.042643
0.829597 0.185772 0.047955
0.861851 0.181384 0.052795
0.877746 0.175210 0.055948
0.877344 0.167283 0.057687
0.000000 0.281365 0.010155
0.000000 0.280845 0.010428
0.000000 0.280170 0.010279
0.022789 0.279445 0.010026
0.052654 0.278594 0.009733
0.088194 0.277593 0.009395
0.123478 0.276439 0.009015
0.156905 0.275164 0.008601
0.189198 0.273761 0.008158
0.220741 0.272199 0.007741
0.251760 0.270477 0.007381
0.282465 0.268659 0.007048
0.312930 0.266703 0.006756
0.343191 0.264596 0.006679
0.373381 0.262411 0.006775
0.403498 0.260106 0.007031
0.433510 0.257709 0.007726
0.463564 0.255278 0.008724
0.493552 0.252779 0.010177
0.523578 0.250284 0.012121
0.553622 0.247778 0.014558
0.583696 0.245296 0.017577
0.613901 0.242831 0.021038
0.644172 0.240374 0.025029
0.674631 0.237978 0.029571
0.705248 0.235506 0.034390
0.736181 0.233024 0.039561
0.767320 0.230386 0.044891
0.798929 0.227566 0.050188
0.830900 0.224329 0.055105
0.863494 0.220606 0.059451
0.880215 0.215324 0.062287
0.879799 0.208616 0.064111
0.000000 0.308610 0.012503
0.000000 0.308128 0.012770
0.000000 0.307565 0.012753
0.014942 0.306970 0.012535
0.044894 0.306268 0.012285
0.080468 0.305440 0.011997
0.117634 0.304474 0.011717
0.152164 0.303371 0.011452
0.185256 0.302152 0.011186
0.217447 0.300846 0.010932
0.249004 0.299410 0.010700
0.280115 0.297834 0.010637
0.310939 0.296176 0.010702
0.341554 0.294426 0.010887
0.371981 0.292560 0.011343
0.402318 0.290642 0.012105
0.432587 0.288663 0.013155
0.462753 0.286619 0.014656
0.492960 0.284597 0.016588
0.523128 0.282539 0.018961
0.553324 0.280504 0.021865
0.583600 0.278483 0.025192
0.613927 0.276467 0.029003
0.644408 0.274516 0.033352
0.675022 0.272500 0.037928
0.705909 0.270518 0.042899
0.736973 0.268441 0.048077
0.768420 0.266263 0.053288
0.800218 0.263813 0.058214
0.832545 0.261020 0.062615
0.865338 0.257759 0.066371
0.882963 0.253187 0.068966
0.882512 0.247322 0.070874
0.000000 0.336287 0.015421
0.000000 0.335836 0.015679
0.000000 0.335357 0.015793
0.006804 0.334828 0.015659
0.036920 0.334211 0.015511
0.072700 0.333517 0.015353
0.111492 0.332714 0.015188
0.147236 0.331800 0.015023
0.181222 0.330765 0.014931
0.214078 0.329610 0.014941
0.246203 0.328408 0.015027
0.277784 0.327099 0.015200
0.308973 0.325680 0.015585
0.339893 0.324194 0.016217
0.370632 0.322659 0.017069
0.401193 0.321045 0.018263
0.431658 0.319402 0.019823
0.462073 0.317748 0.021767
0.492408 0.316055 0.024133
0.522784 0.314399 0.026950
0.553163 0.312740 0.030203
0.583598 0.311088 0.033851
0.614138 0.309489 0.038018
0.644777 0.307847 0.042415
0.675663 0.306253 0.047178
0.706691 0.304595 0.052171
0.738043 0.302888 0.057243
0.769735 0.300982 0.062006
0.801878 0.298831 0.066309
0.834463 0.296367 0.070100
0.867493 0.293565 0.073429
0.886064 0.289638 0.076008
0.885616 0.284396 0.077964
0.000000 0.364307 0.019184
0.000000 0.363881 0.019435
0.000000 0.363454 0.019644
0.000000 0.363019 0.019570
0.028837 0.362491 0.019558
0.064868 0.361869 0.019560
0.105127 0.361172 0.019592
0.142250 0.360405 0.019666
0.177188 0.359545 0.019791
0.210764 0.358588 0.020006
0.243435 0.357526 0.020432
0.275489 0.356426 0.021008
0.307084 0.355258 0.021757
0.338328 0.354009 0.022785
0.369322 0.352710 0.024108
0.400164 0.351405 0.025756
0.430851 0.350051 0.027741
0.461443 0.348684 0.030152
0.492029 0.347340 0.032887
0.522550 0.345981 0.036119
0.553148 0.344648 0.039611
0.583786 0.343337 0.043585
0.614494 0.342018 0.047875
0.645413 0.340735 0.052409
0.676444 0.339404 0.057177
0.707762 0.338064 0.062055
0.739376 0.336580 0.066642
0.771387 0.334926 0.070824
0.803803 0.333054 0.074560
0.836614 0.330921 0.077864
0.869843 0.328555 0.080924
0.889357 0.325148 0.083732
0.888921 0.320383 0.085661
0.000000 0.392612 0.024178
0.000000 0.392211 0.024415
0.000000 0.391809 0.024652
0.000000 0.391438 0.024736
0.020997 0.391007 0.024822
0.057250 0.390496 0.024948
0.098730 0.389890 0.025203
0.137310 0.389204 0.025533
0.173260 0.388486 0.025971
0.207585 0.387694 0.026525
0.240833 0.386824 0.027242
0.273332 0.385877 0.028195
0.305307 0.384899 0.029376
0.336899 0.383892 0.030822
0.368184 0.382832 0.032546
0.399240 0.381735 0.034618
0.430190 0.380670 0.037006
0.461011 0.379578 0.039765
0.491760 0.378476 0.042853
0.522538 0.377427 0.046347
0.553312 0.376361 0.050107
0.584144 0.375327 0.054310
0.615122 0.374303 0.058624
0.646193 0.373238 0.063118
0.677538 0.372203 0.067741
0.709092 0.371064 0.072194
0.741030 0.369804 0.076169
0.773319 0.368386 0.079764
0.805962 0.366773 0.083223
0.839001 0.364993 0.086161
0.872305 0.363014 0.089032
0.892926 0.360120 0.091572
0.892484 0.355728 0.093399
0.000000 0.421194 0.030648
0.000000 0.420815 0.030868
0.000000 0.420435 0.031089
0.000000 0.420099 0.031309
0.013672 0.419739 0.031582
0.050221 0.419313 0.031929
0.092573 0.418822 0.032364
0.132660 0.418256 0.032959
0.169586 0.417624 0.033687
0.204633 0.416957 0.034584
0.238453 0.416254 0.035676
0.271411 0.415497 0.036973
0.303746 0.414687 0.038517
0.335639 0.413852 0.040362
0.367224 0.413029 0.042449
0.398552 0.412173 0.044865
0.429685 0.411292 0.047595
0.460756 0.410465 0.050627
0.491739 0.409626 0.054018
0.522676 0.408775 0.057663
0.553706 0.407995 0.061609
0.584750 0.407199 0.065879
0.615936 0.406389 0.070054
0.647321 0.405594 0.074335
0.678869 0.404722 0.078513
0.710762 0.403807 0.082610
0.742963 0.402748 0.085912
0.775489 0.401557 0.088871
0.808364 0.400242 0.091620
0.841488 0.398767 0.094330
0.874967 0.397217 0.097200
0.896643 0.394742 0.099774
0.896219 0.390668 0.101504
0.000000 0.450047 0.038917
0.000000 0.449689 0.039121
0.000000 0.449331 0.039326
0.000000 0.448999 0.039585
0.007057 0.448695 0.040039
0.043896 0.448350 0.040607
0.086901 0.447951 0.041303
0.128442 0.447500 0.042139
0.166311 0.446999 0.043137
0.202028 0.446446 0.044326
0.236356 0.445855 0.045741
0.269745 0.445272 0.047373
0.302443 0.444655 0.049222
0.334642 0.444001 0.051385
0.366463 0.443334 0.053764
0.398059 0.442707 0.056453
0.429450 0.442061 0.059466
0.460697 0.441407 0.062674
0.491913 0.440803 0.066248
0.523105 0.440207 0.069992
0.554296 0.439593 0.073890
0.585607 0.439036 0.078043
0.617061 0.438446 0.082131
0.648665 0.437810 0.085841
0.680560 0.437171 0.089284
0.712680 0.436417 0.092327
0.745139 0.435581 0.094985
0.777878 0.434641 0.097521
0.810862 0.433585 0.100074
0.844163 0.432472 0.102793
0.877644 0.431228 0.105713
0.900552 0.429185 0.108366
0.900123 0.425369 0.110000
0.000000 0.479218 0.049167
0.000000 0.478877 0.049356
0.000000 0.478536 0.049545
0.000000 0.478195 0.049746
0.001299 0.477942 0.050356
0.038391 0.477644 0.051107
0.081793 0.477320 0.052024
0.124725 0.476977 0.053098
0.163457 0.476601 0.054320
0.199799 0.476187 0.055759
0.234612 0.475737 0.057444
0.268360 0.475261 0.059317
0.301388 0.474816 0.061410
0.333890 0.474351 0.063832
0.365980 0.473878 0.066427
0.397774 0.473390 0.069294
0.429412 0.472961 0.072460
0.460907 0.472532 0.075790
0.492307 0.472094 0.079335
0.523723 0.471700 0.083246
0.555193 0.471323 0.086796
0.586712 0.470916 0.090328
0.618434 0.470527 0.093480
0.650346 0.470100 0.096369
0.682436 0.469589 0.099022
0.714855 0.469069 0.101486
0.747482 0.468438 0.103833
0.780367 0.467739 0.106237
0.813513 0.466983 0.108819
0.846840 0.466119 0.111597
0.880507 0.465239 0.114611
0.904636 0.463545 0.117313
0.904223 0.459960 0.118863
0.000000 0.508716 0.061356
0.000000 0.508389 0.061533
0.000000 0.508062 0.061710
0.000000 0.507732 0.061888
0.000000 0.507496 0.062505
0.033665 0.507277 0.063416
0.077094 0.507025 0.064511
0.121468 0.506752 0.065727
0.160990 0.506486 0.067131
0.197906 0.506203 0.068775
0.233171 0.505894 0.070680
0.267275 0.505580 0.072708
0.300586 0.505249 0.074973
0.333359 0.504935 0.077585
0.365705 0.504657 0.080255
0.397753 0.504364 0.083486
0.429571 0.504073 0.086494
0.461291 0.503834 0.089653
0.492948 0.503617 0.092722
0.524572 0.503385 0.095861
0.556274 0.503180 0.098638
0.588097 0.502988 0.101370
0.620036 0.502748 0.103894
0.652193 0.502491 0.106133
0.684566 0.502200 0.108329
0.717110 0.501822 0.110515
0.749936 0.501435 0.112812
0.782953 0.500970 0.115271
0.816180 0.500440 0.117927
0.849691 0.499884 0.120791
0.883379 0.499222 0.123814
0.908901 0.497900 0.126569
0.908484 0.494506 0.128040
0.000000 0.538601 0.075339
0.000000 0.538287 0.075505
0.000000 0.537973 0.075672
0.000000 0.537656 0.075840
0.000000 0.537399 0.076351
0.029528 0.537255 0.077394
0.073172 0.537098 0.078581
0.118580 0.536931 0.079900
0.158842 0.536744 0.081688
0.196280 0.536546 0.083462
0.231949 0.536379 0.085431
0.266384 0.536219 0.087464
0.300005 0.536044 0.089747
0.333010 0.535869 0.092153
0.365571 0.535723 0.094592
0.397869 0.535616 0.097291
0.429922 0.535532 0.099770
0.461842 0.535433 0.102444
0.493719 0.535387 0.104827
0.525619 0.535362 0.107244
0.557556 0.535315 0.109463
0.589601 0.535259 0.111520
0.621825 0.535216 0.113548
0.654183 0.535113 0.115531
0.686729 0.534978 0.117573
0.719497 0.534828 0.119769
0.752417 0.534601 0.122124
0.785588 0.534362 0.124673
0.818970 0.534072 0.127396
0.852540 0.533703 0.130270
0.886432 0.533332 0.133308
0.913356 0.532313 0.136062
0.912953 0.529097 0.137469
0.000000 0.568930 0.090873
0.000000 0.568627 0.091022
0.000000 0.568324 0.091171
0.000000 0.568018 0.091321
0.000000 0.567707 0.091619
0.025616 0.567650 0.092589
0.069442 0.567588 0.093707
0.115832 0.567516 0.095007
0.156848 0.567434 0.096502
0.194801 0.567346 0.098172
0.230777 0.567279 0.099827
0.265550 0.567241 0.101703
0.299472 0.567218 0.103777
0.332706 0.567228 0.105712
0.365520 0.567229 0.107847
0.397992 0.567251 0.109875
0.430305 0.567346 0.111959
0.462480 0.567446 0.113919
0.494592 0.567536 0.115863
0.526718 0.567643 0.117641
0.558936 0.567775 0.119449
0.591230 0.567871 0.121220
0.623633 0.567931 0.123048
0.656238 0.568017 0.125010
0.688969 0.568044 0.127106
0.721860 0.568029 0.129366
0.754993 0.568027 0.131813
0.788278 0.567952 0.134405
0.821796 0.567856 0.137151
0.855559 0.567729 0.140024
0.889504 0.567512 0.142967
0.918015 0.566843 0.145730
0.917608 0.563773 0.147073
0.000000 0.599830 0.105691
0.000000 0.599537 0.105835
0.000000 0.599244 0.105980
0.000000 0.598948 0.106125
0.000000 0.598598 0.106297
0.021374 0.598537 0.107092
0.065451 0.598556 0.108140
0.112825 0.598575 0.109355
0.154589 0.598610 0.110648
0.192995 0.598667 0.111958
0.229431 0.598724 0.113431
0.264558 0.598783 0.115056
0.298689 0.598896 0.116529
0.332240 0.599054 0.118171
0.365319 0.599230 0.119779
0.398071 0.599418 0.121343
0.430611 0.599606 0.122916
0.463063 0.599853 0.124448
0.495470 0.600104 0.125992
0.527866 0.600335 0.127558
0.560304 0.600550 0.129181
0.592871 0.600803 0.130932
0.625521 0.601015 0.132802
0.658266 0.601178 0.134819
0.691228 0.601388 0.137014
0.724319 0.601545 0.139345
0.757553 0.601651 0.141808
0.791056 0.601792 0.144424
0.824721 0.601864 0.147131
0.858608 0.601898 0.149918
0.892764 0.601923 0.152839
0.922789 0.601539 0.155856
0.922404 0.598607 0.157105
0.000000 0.631406 0.119679
0.000000 0.631121 0.119815
0.000000 0.630836 0.119952
0.000000 0.630548 0.120089
0.000000 0.630207 0.120252
0.016100 0.630077 0.120799
0.060355 0.630149 0.121666
0.108605 0.630251 0.122525
0.151346 0.630401 0.123517
0.190510 0.630564 0.124639
0.227472 0.630750 0.125792
0.262974 0.630967 0.126908
0.297541 0.631189 0.128136
0.331409 0.631431 0.129337
0.364833 0.631738 0.130570
0.397941 0.632060 0.131851
0.430824 0.632383 0.133140
0.463572 0.632697 0.134498
0.496278 0.633042 0.135938
0.528991 0.633402 0.137499
0.561714 0.633736 0.139170
0.594476 0.634038 0.140970
0.627388 0.634399 0.142938
0.660388 0.634724 0.145030
0.693486 0.635006 0.147244
0.726790 0.635326 0.149605
0.760248 0.635614 0.152072
0.793850 0.635847 0.154612
0.827726 0.636114 0.157265
0.861766 0.636329 0.160127
0.895931 0.636520 0.163593
0.927515 0.636566 0.168017
0.927158 0.633739 0.168972
0.000000 0.663751 0.132125
0.000000 0.663471 0.132270
0.000000 0.663191 0.132415
0.000000 0.662908 0.132561
0.000000 0.662574 0.132734
0.008421 0.662340 0.133040
0.052832 0.662500 0.133670
0.102487 0.662677 0.134394
0.146777 0.662877 0.135182
0.186869 0.663114 0.135955
0.224587 0.663409 0.136826
0.260764 0.663720 0.137778
0.295861 0.664056 0.138727
0.330238 0.664400 0.139754
0.364099 0.664753 0.140846
0.397616 0.665142 0.142020
0.430911 0.665565 0.143301
0.464041 0.665982 0.144677
0.497069 0.666386 0.146173
0.530064 0.666804 0.147786
0.563096 0.667261 0.149543
0.596148 0.667695 0.151416
0.629244 0.668103 0.153402
0.662484 0.668559 0.155526
0.695835 0.669001 0.157757
0.729293 0.669405 0.160065
0.762949 0.669832 0.162462
0.796781 0.670247 0.164994
0.830734 0.670613 0.167873
0.864840 0.671027 0.171678
0.898939 0.671477 0.177010
0.931874 0.671896 0.183923
0.931567 0.669178 0.184489
0.000000 0.696828 0.143333
0.000000 0.696554 0.143479
0.000000 0.696280 0.143625
0.000000 0.696004 0.143772
0.000000 0.695677 0.143946
0.000000 0.695288 0.144151
0.043071 0.695508 0.144644
0.094109 0.695755 0.145207
0.140645 0.696027 0.145842
0.182233 0.696321 0.146550
0.221000 0.696637 0.147316
0.258000 0.696993 0.148164
0.293824 0.697398 0.149100
0.328823 0.697814 0.150131
0.363230 0.698242 0.151242
0.397221 0.698673 0.152467
0.430916 0.699119 0.153786
0.464448 0.699627 0.155244
0.497843 0.700130 0.156802
0.531156 0.700626 0.158468
0.564437 0.701119 0.160242
0.597784 0.701679 0.162146
0.631162 0.702220 0.164145
0.664596 0.702739 0.166224
0.698167 0.703293 0.168390
0.731875 0.703851 0.170683
0.765686 0.704371 0.173246
0.799633 0.704900 0.176432
0.833668 0.705454 0.180746
0.867650 0.706014 0.186668
0.901614 0.706682 0.194157
0.935650 0.707445 0.202077
0.935980 0.704897 0.202706
0.000000 0.730512 0.154030
0.000000 0.730245 0.154170
0.000000 0.729978 0.154310
0.000000 0.729709 0.154450
0.000000 0.729390 0.154617
0.000000 0.729012 0.154814
0.031742 0.729073 0.155227
0.084002 0.729356 0.155791
0.133562 0.729669 0.156428
0.176968 0.730008 0.157140
0.217026 0.730371 0.157931
0.255014 0.730752 0.158818
0.291614 0.731153 0.159784
0.327282 0.731622 0.160865
0.362273 0.732115 0.162042
0.396771 0.732619 0.163316
0.430913 0.733131 0.164687
0.464800 0.733647 0.166156
0.498562 0.734236 0.167747
0.532220 0.734835 0.169434
0.565815 0.735430 0.171204
0.599388 0.736016 0.173054
0.633044 0.736674 0.175009
0.666754 0.737323 0.177079
0.700528 0.737944 0.179407
0.734412 0.738572 0.182277
