Ricoh_GR2_Posi_Final_33_Rec709.cube
TITLE "Ricoh_GR2_Posi_Final_33_Rec709"
LUT_3D_SIZE 9
DOMAIN_MIN 0.000000 0.000000 0.000000
DOMAIN_MAX 1.000000 1.000000 1.000000
0.000000 0.000000 0.000000
0.108721 0.000000 0.000000
0.223976 0.000000 0.000000
0.330040 0.000000 0.000000
0.441593 0.000000 0.000000
0.557441 0.000000 0.000000
0.675697 0.000000 0.000000
0.796634 0.000000 0.005001
0.871235 0.000000 0.023265
0.000000 0.099896 0.002074
0.097745 0.090543 0.000545
0.212911 0.073308 0.000000
0.325376 0.051138 0.000000
0.439485 0.023302 0.000000
0.556135 0.000000 0.000000
0.674504 0.000000 0.000000
0.795605 0.000000 0.012161
0.871272 0.000000 0.030652
0.000000 0.202085 0.005500
0.073790 0.197246 0.004468
0.200089 0.189178 0.002198
0.318600 0.177564 0.000000
0.436369 0.162216 0.000000
0.554790 0.143679 0.000000
0.674188 0.124037 0.009340
0.796280 0.103308 0.029190
0.873470 0.066922 0.045477
0.000000 0.308610 0.012503
0.044894 0.306268 0.012285
0.185256 0.302152 0.011186
0.310939 0.296176 0.010702
0.432587 0.288663 0.013155
0.553324 0.280504 0.021865
0.675022 0.272500 0.037928
0.800218 0.263813 0.058214
0.882512 0.247322 0.070874
0.000000 0.421194 0.030648
0.013672 0.419739 0.031582
0.169586 0.417624 0.033687
0.303746 0.414687 0.038517
0.429685 0.411292 0.047595
0.553706 0.407995 0.061609
0.678869 0.404722 0.078513
0.808364 0.400242 0.091620
0.896219 0.390668 0.101504
0.000000 0.538601 0.075339
0.000000 0.537399 0.076351
0.158842 0.536744 0.081688
0.300005 0.536044 0.089747
0.429922 0.535532 0.099770
0.557556 0.535315 0.109463
0.686729 0.534978 0.117573
0.818970 0.534072 0.127396
0.912953 0.529097 0.137469
0.000000 0.663751 0.132125
0.000000 0.662574 0.132734
0.146777 0.662877 0.135182
0.295861 0.664056 0.138727
0.430911 0.665565 0.143301
0.563096 0.667261 0.149543
0.695835 0.669001 0.157757
0.830734 0.670613 0.167873
0.931567 0.669178 0.184489
0.001501 0.799321 0.176479
0.001449 0.798265 0.177002
0.117610 0.798229 0.178705
0.286840 0.800039 0.182290
0.430631 0.802367 0.187199
0.568480 0.805127 0.194168
0.705497 0.807853 0.210097
0.842623 0.811346 0.228524
0.954966 0.812613 0.219966
0.017739 0.929527 0.226651
0.017753 0.929532 0.227177
0.081360 0.930294 0.229246
0.281352 0.934178 0.238484
0.435265 0.939869 0.249991
0.575225 0.948638 0.250050
0.713621 0.954888 0.238125
0.856371 0.959724 0.238830
0.979544 0.961778 0.264807
0.000000 0.002775 0.098373
0.104923 0.000000 0.091566
0.220063 0.000000 0.086729
0.328103 0.000000 0.078439
0.440468 0.000000 0.072637
0.556725 0.000000 0.069901
0.675187 0.000000 0.076331
0.796351 0.000000 0.095787
0.871748 0.000000 0.112422
0.000000 0.102331 0.096023
0.091996 0.091996 0.091996
0.209776 0.075624 0.086932
0.323567 0.053776 0.082130
0.438433 0.026141 0.077911
0.555455 0.000000 0.076720
0.673993 0.000000 0.083704
0.795322 0.000000 0.102175
0.871790 0.000000 0.118404
0.000000 0.202997 0.093386
0.068891 0.198453 0.092224
0.197485 0.190634 0.089823
0.317024 0.179272 0.087176
0.435369 0.164251 0.085614
0.554122 0.146234 0.088378
0.673765 0.127278 0.099177
0.796130 0.107185 0.116938
0.874080 0.071367 0.130289
0.000000 0.309735 0.099424
0.040371 0.307442 0.099391
0.182802 0.303409 0.098736
0.309518 0.297538 0.098856
0.431660 0.290176 0.101756
0.552748 0.282235 0.109888
0.674714 0.274439 0.123598
0.800228 0.265754 0.139504
0.883313 0.249343 0.149282
0.000000 0.422295 0.116251
0.009795 0.420834 0.117054
0.167350 0.418751 0.119005
0.302505 0.415881 0.123156
0.428934 0.412611 0.130478
0.553266 0.409410 0.141218
0.678714 0.406178 0.153501
0.808444 0.401703 0.163502
0.896974 0.392203 0.171523
0.000000 0.539709 0.150372
0.000000 0.538476 0.150995
0.156856 0.537848 0.154547
0.298944 0.537207 0.160280
0.429269 0.536762 0.167607
0.557194 0.536582 0.175198
0.686614 0.536267 0.182297
0.818996 0.535359 0.191054
0.913669 0.530441 0.199667
0.000000 0.664990 0.191768
0.000000 0.663814 0.192206
0.144217 0.664066 0.194245
0.294582 0.665261 0.197485
0.430182 0.666771 0.201769
0.562694 0.668459 0.207562
0.695651 0.670191 0.215067
0.830689 0.671797 0.224400
0.932126 0.670476 0.239075
0.001703 0.800531 0.229279
0.001649 0.799476 0.229682
0.114417 0.799371 0.231194
0.285440 0.801190 0.234572
0.429832 0.803521 0.239184
0.568046 0.806262 0.245766
0.705312 0.808949 0.260135
0.842617 0.812505 0.275273
0.955771 0.813782 0.268611
0.019123 0.930014 0.273555
0.019137 0.930019 0.274002
0.077883 0.930722 0.275741
0.280331 0.934589 0.284021
0.434382 0.940393 0.293755
0.574429 0.949879 0.293804
0.713195 0.956039 0.285152
0.856210 0.960763 0.287871
0.980073 0.962842 0.311828
0.000000 0.006977 0.199864
0.098225 0.000000 0.200930
0.214156 0.000000 0.193653
0.324940 0.000000 0.187065
0.438594 0.000000 0.183720
0.555544 0.000000 0.183183
0.674326 0.000000 0.188001
0.795903 0.000000 0.200134
0.872619 0.000000 0.211191
0.000000 0.103818 0.199494
0.082694 0.094867 0.196113
0.204701 0.079598 0.191878
0.320603 0.058240 0.188672
0.436677 0.030946 0.186839
0.554310 0.000000 0.187172
0.673130 0.000000 0.192013
0.794868 0.000000 0.203955
0.872660 0.000000 0.214986
0.000000 0.204778 0.195277
0.060787 0.200547 0.194548
0.193105 0.193105 0.193105
0.314453 0.182186 0.191935
0.433659 0.167690 0.191792
0.552972 0.150540 0.194345
0.673049 0.132659 0.201625
0.795883 0.113525 0.213682
0.875190 0.078555 0.223123
0.000000 0.311662 0.199211
0.032885 0.309407 0.199356
0.178639 0.305528 0.199293
0.307129 0.299830 0.199912
0.430108 0.292725 0.202358
0.551780 0.285148 0.208092
0.674242 0.277660 0.217661
0.800285 0.269023 0.229376
0.884645 0.252715 0.237274
0.000000 0.424149 0.211239
0.003392 0.422673 0.211796
0.163608 0.420687 0.213334
0.300464 0.417932 0.216412
0.427685 0.414835 0.221721
0.552524 0.411786 0.229644
0.678491 0.408649 0.239089
0.808569 0.404146 0.247888
0.898229 0.394773 0.255152
0.000000 0.541596 0.235520
0.000000 0.540308 0.235879
0.153539 0.539749 0.238655
0.297111 0.539182 0.243030
0.428168 0.538825 0.248941
0.556588 0.538711 0.255361
0.686408 0.538427 0.262209
0.819029 0.537515 0.270602
0.914863 0.532690 0.278443
0.000000 0.667060 0.267614
0.000000 0.665886 0.267916
0.139839 0.666095 0.269693
0.292409 0.667277 0.272825
0.428943 0.668789 0.277075
0.562010 0.670465 0.282745
0.695334 0.672184 0.289930
0.830642 0.673812 0.298922
0.933084 0.672676 0.312182
0.002056 0.802554 0.300156
0.002000 0.801501 0.300449
0.108916 0.801330 0.301812
0.283057 0.803117 0.305082
0.428478 0.805452 0.309567
0.567329 0.808151 0.316027
0.705003 0.810789 0.329013
0.842594 0.814445 0.340997
0.957107 0.815729 0.336460
0.021572 0.930820 0.339295
0.021590 0.930825 0.339664
0.072979 0.931399 0.341155
0.278581 0.935285 0.348343
0.432889 0.941269 0.356302
0.573034 0.950970 0.356631
0.712463 0.957963 0.351506
0.855964 0.962510 0.356775
0.980993 0.964659 0.378642
0.000000 0.014060 0.310220
0.083929 0.005683 0.305385
0.205551 0.000000 0.297665
0.320225 0.000000 0.292811
0.435838 0.000000 0.291066
0.553701 0.000000 0.291803
0.672978 0.000000 0.296159
0.795305 0.000000 0.305712
0.873950 0.000000 0.314636
0.000000 0.107228 0.301023
0.068543 0.099810 0.298953
0.197254 0.086221 0.295894
0.316162 0.065282 0.293860
0.433883 0.038692 0.293321
0.552454 0.008252 0.294626
0.671859 0.000000 0.298988
0.794263 0.000000 0.308362
0.873990 0.000000 0.317330
0.000000 0.207846 0.298083
0.048425 0.204081 0.297791
0.186358 0.197115 0.297039
0.310426 0.186738 0.296748
0.431130 0.173089 0.297506
0.551234 0.157212 0.300183
0.671994 0.140792 0.306162
0.795619 0.122772 0.315840
0.877043 0.089762 0.323742
0.000000 0.314671 0.301818
0.021366 0.312545 0.302085
0.172104 0.308826 0.302410
0.303410 0.303410 0.303410
0.427791 0.296776 0.305829
0.550275 0.289691 0.310600
0.673525 0.282628 0.318380
0.800378 0.274065 0.328319
0.886726 0.257843 0.335546
0.000000 0.427027 0.311903
0.000000 0.425542 0.312305
0.157757 0.423711 0.313703
0.297313 0.421165 0.316315
0.425757 0.418304 0.320720
0.551399 0.415470 0.327256
0.678142 0.412465 0.335475
0.808767 0.407941 0.344095
0.900237 0.398800 0.351333
0.000000 0.544547 0.331080
0.000000 0.543225 0.331287
0.148127 0.542759 0.333573
0.294275 0.542303 0.337313
0.426432 0.542084 0.342443
0.555675 0.542062 0.348572
0.686057 0.541767 0.355631
0.819081 0.540872 0.364210
0.916766 0.536213 0.371888
0.000000 0.670337 0.357733
0.000000 0.669153 0.357935
0.132764 0.669251 0.359624
0.288957 0.670396 0.362826
0.426985 0.671905 0.367290
0.560918 0.673566 0.373126
0.694816 0.675269 0.380375
0.830539 0.676946 0.389541
0.934546 0.676108 0.401922
0.002631 0.805760 0.387422
0.002572 0.804700 0.387618
0.099933 0.804359 0.388828
0.279288 0.806096 0.392123
0.426341 0.808438 0.396681
0.566239 0.811053 0.403336
0.704523 0.813655 0.415148
0.842572 0.817465 0.424274
0.959098 0.818731 0.422718
0.026283 0.932014 0.422850
0.026302 0.932019 0.423149
0.065451 0.932477 0.424248
0.275721 0.936394 0.430439
0.430447 0.942649 0.436922
0.570778 0.952582 0.437823
0.711373 0.960954 0.436552
0.855592 0.965222 0.444208
0.982439 0.967493 0.464317
0.000000 0.022687 0.407834
0.063255 0.015038 0.404843
0.194471 0.001238 0.400357
0.314043 0.000000 0.397777
0.432005 0.000000 0.397389
0.551062 0.000000 0.399058
0.671245 0.000000 0.403422
0.794491 0.000000 0.411984
0.875974 0.000000 0.420188
0.000000 0.113300 0.402277
0.050540 0.107141 0.401445
0.187290 0.095004 0.399678
0.310243 0.075368 0.398855
0.430248 0.049695 0.399447
0.550005 0.021088 0.401425
0.670306 0.000000 0.405738
0.793447 0.000000 0.413975
0.876021 0.000000 0.422247
0.000000 0.212565 0.401533
0.031601 0.209210 0.401572
0.176902 0.202769 0.401446
0.304958 0.193134 0.401920
0.427595 0.180580 0.403264
0.548917 0.166379 0.406186
0.670675 0.151743 0.411735
0.795391 0.134947 0.420559
0.879714 0.103449 0.428007
0.000000 0.319067 0.405866
0.005701 0.316997 0.406127
0.162994 0.313542 0.406774
0.298399 0.308518 0.408058
0.424626 0.302422 0.410506
0.548349 0.295991 0.414960
0.672573 0.289404 0.422042
0.800591 0.280780 0.431502
0.889547 0.264825 0.438913
0.000000 0.431182 0.415041
0.000000 0.429653 0.415305
0.149636 0.427941 0.416621
0.293003 0.425660 0.419075
0.423119 0.423119 0.423119
0.549937 0.420624 0.429206
0.677678 0.417663 0.437109
0.809051 0.413197 0.446265
0.902962 0.404339 0.453894
0.000000 0.548799 0.431602
0.000000 0.547471 0.431740
0.140465 0.546925 0.433683
0.290260 0.546683 0.437216
0.424020 0.546630 0.442196
0.554355 0.546662 0.448496
0.685509 0.546354 0.456096
0.819173 0.545536 0.465232
0.919375 0.541071 0.473192
0.000000 0.674912 0.455672
0.000000 0.673730 0.455797
0.122260 0.673595 0.457370
0.284101 0.674765 0.460852
0.424232 0.676205 0.465637
0.559378 0.677848 0.471840
0.694130 0.679580 0.479467
0.830317 0.681274 0.489139
0.936613 0.680832 0.500812
0.003456 0.810154 0.484126
0.003394 0.809099 0.484251
0.086509 0.808511 0.485283
0.273947 0.810237 0.488734
0.423372 0.812520 0.493537
0.564803 0.814998 0.500564
0.703848 0.817632 0.511318
0.842490 0.821608 0.518729
0.961710 0.822832 0.520486
0.033306 0.933713 0.517115
0.033327 0.933718 0.517360
0.055487 0.933972 0.518084
0.271458 0.937975 0.523411
0.426490 0.944683 0.528777
0.567534 0.954771 0.530939
0.709892 0.964987 0.533433
0.855100 0.968910 0.543119
0.984479 0.971438 0.561390
0.000000 0.033873 0.506316
0.039806 0.027028 0.505528
0.181127 0.013618 0.503471
0.306223 0.000000 0.502709
0.427213 0.000000 0.503630
0.547782 0.000000 0.505952
0.669037 0.000000 0.510437
0.793541 0.000000 0.518869
0.878780 0.000000 0.527344
0.000000 0.122124 0.504625
0.028302 0.116944 0.504498
0.174539 0.106183 0.503968
0.302858 0.088979 0.504269
0.425543 0.064776 0.505635
0.546824 0.038563 0.508077
0.668336 0.013410 0.512564
0.792483 0.000000 0.520441
0.878830 0.000000 0.529001
0.000000 0.219165 0.505864
0.010280 0.216148 0.506082
0.164438 0.210275 0.506478
0.297935 0.201537 0.507520
0.423173 0.190401 0.509342
0.546010 0.178094 0.512457
0.669072 0.165218 0.518039
0.795224 0.149417 0.526919
0.883277 0.119369 0.534760
0.000000 0.324922 0.510852
0.000000 0.322920 0.511084
0.151064 0.319746 0.511884
0.292011 0.315225 0.513369
0.420693 0.309847 0.515998
0.545961 0.304139 0.520493
0.671564 0.298049 0.527626
0.800922 0.289226 0.537463
0.893237 0.273742 0.545581
0.000000 0.436667 0.519537
0.000000 0.435079 0.519676
0.139001 0.433591 0.521052
0.287547 0.431636 0.523544
0.419862 0.429481 0.527624
0.548115 0.427239 0.533744
0.677119 0.424316 0.542067
0.809302 0.419928 0.552064
0.906378 0.411430 0.560353
0.000000 0.554352 0.534994
0.000000 0.553027 0.535079
0.129912 0.552447 0.536868
0.284831 0.552360 0.540466
0.420752 0.552480 0.545721
0.552546 0.552546 0.552546
0.684798 0.552305 0.560897
0.819206 0.551508 0.570719
0.922633 0.547317 0.579296
0.000000 0.680765 0.558455
0.000000 0.679588 0.558520
0.107474 0.679179 0.559966
0.277622 0.680349 0.563794
0.420628 0.681788 0.569019
0.557374 0.683413 0.575698
0.693177 0.685113 0.583842
0.829890 0.686876 0.594128
0.939460 0.686835 0.605009
0.004523 0.815764 0.586721
0.004465 0.814713 0.586791
0.067370 0.813822 0.587592
0.266839 0.815592 0.591328
0.419616 0.817762 0.596478
0.563095 0.820016 0.603780
0.702894 0.822855 0.613447
0.842331 0.826958 0.620700
0.964945 0.828159 0.625980
0.042666 0.935903 0.617911
0.042685 0.935908 0.618116
0.042718 0.935916 0.618460
0.265025 0.940166 0.623131
0.420599 0.947419 0.628109
0.563205 0.957499 0.632085
0.707822 0.968035 0.637812
0.854527 0.973603 0.649072
0.987205 0.976594 0.665145
0.000000 0.048342 0.608115
0.012406 0.042206 0.608118
0.164817 0.029301 0.607779
0.296923 0.010061 0.608387
0.421353 0.000000 0.610119
0.543714 0.000000 0.612736
0.666504 0.000000 0.617625
0.792647 0.000000 0.626628
0.882370 0.000000 0.635994
0.000000 0.133571 0.608628
0.001564 0.129181 0.608775
0.158438 0.119773 0.609211
0.293872 0.105041 0.610304
0.419856 0.084889 0.612125
0.543087 0.061369 0.614927
0.666242 0.038420 0.619895
0.792112 0.012215 0.628389
0.882423 0.000000 0.637381
0.000000 0.227833 0.611309
0.000000 0.225066 0.611493
0.148550 0.219826 0.612259
0.289388 0.212155 0.613620
0.417836 0.202673 0.615719
0.542639 0.192289 0.619179
0.667411 0.181087 0.625292
0.795384 0.165628 0.634972
0.887845 0.137154 0.643776
0.000000 0.332470 0.616595
0.000000 0.330469 0.616721
0.136082 0.327649 0.617613
0.284345 0.323745 0.619299
0.416017 0.319132 0.622201
0.543235 0.314197 0.627131
0.670468 0.308365 0.634840
0.801388 0.299394 0.645746
0.897643 0.284595 0.654785
0.000000 0.443729 0.625151
0.000000 0.442150 0.625244
0.125460 0.440743 0.626604
0.280839 0.439131 0.629289
0.415855 0.437363 0.633716
0.545938 0.435380 0.640455
0.676411 0.432458 0.649653
0.809544 0.428226 0.660602
0.910645 0.420192 0.669799
0.000000 0.561503 0.640765
0.000000 0.560172 0.640796
0.115237 0.559400 0.642397
0.277706 0.559549 0.646434
0.416559 0.559767 0.652229
0.550285 0.559864 0.659741
0.683812 0.559614 0.668796
0.819178 0.558849 0.679404
0.926502 0.555175 0.688850
0.000000 0.688035 0.664896
0.000000 0.686857 0.664907
0.086923 0.686099 0.666115
0.269316 0.687200 0.670248
0.415999 0.688593 0.675899
0.554755 0.690209 0.683121
0.691878 0.691878 0.691878
0.829330 0.693904 0.702539
0.943613 0.694007 0.712889
0.005855 0.822742 0.693567
0.005791 0.821689 0.693587
0.043599 0.820450 0.694086
0.257811 0.822100 0.698045
0.415341 0.824125 0.703551
0.561241 0.826259 0.710848
0.701509 0.829506 0.719839
0.841912 0.833457 0.728479
0.968581 0.834711 0.736923
0.052039 0.938770 0.722928
0.052053 0.938775 0.723102
0.052076 0.938784 0.723395
0.254790 0.943236 0.727546
0.412235 0.950883 0.732987
0.557849 0.960660 0.739070
0.705250 0.970548 0.747071
0.853966 0.979345 0.759404
0.990719 0.983067 0.773117
0.000000 0.066836 0.712671
0.000000 0.061284 0.712802
0.144567 0.049133 0.713490
0.285989 0.031337 0.714890
0.414518 0.009577 0.717001
0.539160 0.000000 0.719839
0.663640 0.000000 0.725228
0.791772 0.000000 0.735456
0.886928 0.000000 0.746454
0.000000 0.147674 0.714355
0.000000 0.143864 0.714450
0.138260 0.135904 0.715434
0.283258 0.123840 0.716899
0.413265 0.108267 0.718955
0.538913 0.090161 0.722213
0.664060 0.068928 0.728020
0.792065 0.041216 0.737841
0.886980 0.000000 0.747645
0.000000 0.238788 0.717732
0.000000 0.236140 0.717825
0.128801 0.231655 0.718674
0.279416 0.225216 0.720170
0.411747 0.217436 0.722565
0.538971 0.208817 0.726685
0.665708 0.198864 0.733713
0.795768 0.183196 0.744893
0.893274 0.156766 0.755008
0.000000 0.341967 0.722971
0.000000 0.339987 0.723061
0.117714 0.337474 0.723965
0.275468 0.334239 0.725945
0.410717 0.330393 0.729359
0.540182 0.326088 0.735031
0.669473 0.320291 0.744058
0.801852 0.311301 0.756203
0.902880 0.297445 0.766370
0.000000 0.452567 0.732006
0.000000 0.450994 0.732053
0.108259 0.449537 0.733302
0.272756 0.448311 0.736467
0.411081 0.446885 0.741597
0.543298 0.444984 0.749371
0.675457 0.442124 0.759620
0.809696 0.438098 0.771475
0.915605 0.430541 0.781715
0.000000 0.570263 0.748888
0.000000 0.568926 0.748856
0.094365 0.567928 0.750329
0.268387 0.568165 0.754879
0.411232 0.568414 0.761297
0.547368 0.568524 0.769468
0.682527 0.568338 0.779295
0.819076 0.567632 0.790757
0.930695 0.564920 0.800872
0.000226 0.696620 0.774293
0.000183 0.695444 0.774260
0.059222 0.694288 0.775100
0.258909 0.695388 0.779595
0.410298 0.696779 0.785719
0.551523 0.698368 0.793505
0.690343 0.700051 0.802769
0.828718 0.702345 0.813235
0.949102 0.701995 0.824453
0.008232 0.830946 0.803688
0.008073 0.829904 0.803677
0.015161 0.828248 0.803751
0.247486 0.829793 0.807929
0.411006 0.831515 0.813380
0.558773 0.833813 0.820542
0.699238 0.837507 0.830162
0.841037 0.841037 0.841037
0.972600 0.842604 0.851600
0.055926 0.942729 0.831374
0.055919 0.942735 0.831527
0.055908 0.942747 0.831782
0.238576 0.947219 0.835922
0.401068 0.955088 0.842619
0.551666 0.964214 0.850514
0.702437 0.973463 0.859767
0.852999 0.983404 0.871843
0.995027 0.990889 0.884527
0.000000 0.090609 0.819473
0.000000 0.085286 0.819546
0.119277 0.074437 0.820410
0.273450 0.058828 0.822034
0.406842 0.040344 0.824232
0.534373 0.020668 0.827689
0.660899 0.000000 0.833977
0.791134 0.000000 0.845928
0.892199 0.000000 0.858761
0.000000 0.164740 0.821466
0.000000 0.161159 0.821529
0.113195 0.154817 0.822332
0.271152 0.145469 0.823898
0.405956 0.133870 0.826256
0.534466 0.120386 0.830323
0.661944 0.103541 0.837445
0.792433 0.073829 0.849374
0.893244 0.027547 0.860768
0.000000 0.252366 0.824700
0.000000 0.249788 0.824781
0.104600 0.245997 0.825566
0.268181 0.240844 0.827240
0.405055 0.234596 0.830217
0.535057 0.227420 0.835330
0.664171 0.217852 0.843997
0.796343 0.202138 0.857037
0.899438 0.178257 0.868450
0.000000 0.353659 0.830155
0.000000 0.351706 0.830210
0.095032 0.349353 0.831091
0.265306 0.346762 0.833604
0.404783 0.343621 0.837792
0.536859 0.339639 0.844787
0.668376 0.333668 0.855527
0.802182 0.325013 0.868781
0.908831 0.312202 0.880201
0.000000 0.463288 0.840414
0.000000 0.461723 0.840401
0.085426 0.460098 0.841577
0.262842 0.459202 0.845509
0.405244 0.457983 0.851793
0.540123 0.456126 0.860771
0.674118 0.453339 0.871817
0.809761 0.449585 0.884616
0.921402 0.442603 0.896107
0.000000 0.580693 0.859823
0.000000 0.579359 0.859745
0.064208 0.577969 0.860790
0.256490 0.578249 0.865889
0.404734 0.578537 0.872896
0.543814 0.578658 0.881652
0.680853 0.578473 0.892167
0.818710 0.577948 0.904341
0.935215 0.576890 0.914522
0.001701 0.706631 0.886463
0.001647 0.705464 0.886402
0.026559 0.703831 0.886693
0.245984 0.704915 0.891526
0.403268 0.706254 0.898075
0.547567 0.707803 0.906356
0.688531 0.709594 0.915454
0.828283 0.712018 0.926350
0.955762 0.710780 0.940482
0.015820 0.840340 0.916428
0.015392 0.839311 0.916402
0.014678 0.837581 0.916359
0.237188 0.838458 0.919901
0.406563 0.840197 0.925229
0.554656 0.843038 0.933231
0.695823 0.846844 0.944903
0.839795 0.849859 0.957394
0.977063 0.852091 0.968677
0.046456 0.947995 0.943573
0.046438 0.948002 0.943709
0.046409 0.948014 0.943938
0.214001 0.952100 0.948333
0.387349 0.959691 0.956344
0.544978 0.968031 0.965266
0.699667 0.976719 0.974720
0.851598 0.986832 0.985766
0.999795 0.999795 0.999795
